X: 1
T: A Quiet Wedding
M: 6/8
L: 1/8
R: jig
K: Amaj
|ABA fAe|AfA eAf|agf eac|dec dBc|
ABA fAe|AfA eAf|agf eac|dBG A2B|
ABA fAe|AfA eAf|agf eac|dec dBc|
ABA fAe|AfA eAf|agf eac|dBG A3|
AcB AFE|D2D2EF|E3 EFG|Ace dcB|
AcB AFE|D2D2EF|E3 EFG|A3-A2G|
AcB AFE|D2D2EF|E3 EFG|Ace dcB|
Ace dcB|AFE D2F|E3 EFG|A3-A2G|
